src/pages/elements/images/keep-it-simple-right-1-mobile.svg

<svg xmlns="http://www.w3.org/2000/svg" viewBox="0 0 288 288"><g fill="none" fill-rule="evenodd"><path fill="#FFF" d="M0 0h288v288H0z"/><path d="M55.192 107.472H44.608V139h-8.512v-31.528H25.512v-7.56h29.68v7.56zm9.52-1.008c-3.36 0-4.816-1.736-4.816-4.088v-1.232c0-2.352 1.456-4.088 4.816-4.088s4.816 1.736 4.816 4.088v1.232c0 2.352-1.456 4.088-4.816 4.088zM60.568 139v-29.4h8.288V139h-8.288zm31.248 0h-4.928c-5.712 0-8.736-2.968-8.736-8.568V116.04h-4.144v-6.44h2.072c2.24 0 2.912-1.12 2.912-3.136v-4.816h7.448v7.952h5.824v6.44H86.44v16.52h5.376V139zm18.2 0h-3.752c-5.656 0-8.232-2.856-8.232-8.064V97.56h8.288v35h3.696V139zm17.248.672c-9.016 0-14.112-5.992-14.112-15.4 0-9.296 4.928-15.344 13.776-15.344 9.744 0 13.664 7.056 13.664 15.008v2.464H121.72v.448c0 3.864 2.072 6.328 6.496 6.328 3.472 0 5.376-1.624 7.224-3.528l4.144 5.152c-2.632 3.024-6.944 4.872-12.32 4.872zm-.168-24.64c-3.304 0-5.376 2.408-5.376 6.048v.448h10.304v-.504c0-3.584-1.624-5.992-4.928-5.992zm-86.912 84.64c-6.272 0-10.696-2.576-13.832-6.832l3.472-2.912c2.744 3.64 5.992 5.6 10.528 5.6 5.6 0 8.624-2.912 8.624-7.392 0-3.696-2.072-5.544-7.224-6.72l-3.192-.728c-7.112-1.624-11.032-4.76-11.032-10.752 0-6.944 5.264-10.696 12.936-10.696 5.88 0 10.024 2.24 12.936 6.384l-3.528 2.576c-2.128-2.968-5.096-4.816-9.632-4.816-4.984 0-8.064 2.184-8.064 6.384 0 3.696 2.408 5.376 7.336 6.496l3.192.728c7.616 1.736 10.92 5.096 10.92 10.92 0 7.168-5.04 11.76-13.44 11.76zm38.92-.672v-4.704h-.224c-1.12 2.744-3.304 5.376-8.12 5.376-5.936 0-9.744-4.032-9.744-11.032v-18.536h4.48v17.752c0 5.152 2.296 7.784 6.608 7.784 3.528 0 7-1.736 7-5.544v-19.992h4.48V199h-4.48zm14 0v-41.44h4.48v17.248h.224c1.512-3.64 4.48-5.376 8.456-5.376 7.224 0 11.76 5.88 11.76 15.12 0 9.24-4.536 15.12-11.76 15.12-3.976 0-6.72-1.792-8.456-5.376h-.224V199h-4.48zm11.928-3.36c5.04 0 8.176-3.472 8.176-8.624v-4.928c0-5.152-3.136-8.624-8.176-8.624-4.088 0-7.448 2.352-7.448 5.544v10.752c0 3.752 3.36 5.88 7.448 5.88zm32.2 3.36h-5.6c-3.08 0-4.76-1.96-4.76-4.76v-20.216h-4.76v-3.92h2.688c1.904 0 2.52-.672 2.52-2.632v-5.376h4.032v8.008h6.328v3.92h-6.328v21.056h5.88V199zm9.912-35.672c-1.904 0-2.744-1.008-2.744-2.52v-.728c0-1.512.84-2.52 2.744-2.52 1.904 0 2.744 1.008 2.744 2.52v.728c0 1.512-.84 2.52-2.744 2.52zM144.904 199v-28.896h4.48V199h-4.48zm25.984 0h-5.6c-3.08 0-4.76-1.96-4.76-4.76v-20.216h-4.76v-3.92h2.688c1.904 0 2.52-.672 2.52-2.632v-5.376h4.032v8.008h6.328v3.92h-6.328v21.056h5.88V199zm16.408 0h-3.976c-3.08 0-4.76-1.96-4.76-4.648V157.56h4.48v37.52h4.256V199zm17.36.672c-7.84 0-12.992-5.936-12.992-15.12s5.152-15.12 12.992-15.12c7.728 0 12.488 5.936 12.488 14.112v2.128h-20.776v1.344c0 4.984 3.192 8.736 8.568 8.736 3.64 0 6.44-1.792 7.952-4.984l3.192 2.296c-1.848 3.92-5.992 6.608-11.424 6.608zm0-26.488c-4.872 0-8.288 3.696-8.288 8.736v.392h15.96v-.616c0-5.096-3.08-8.512-7.672-8.512z" fill="#3D3D3D"/></g></svg>

<?xml version="1.0" encoding="UTF-8"?>
<svg width="288px" height="288px" viewBox="0 0 288 288" version="1.1" xmlns="http://www.w3.org/2000/svg" xmlns:xlink="http://www.w3.org/1999/xlink">
    <!-- Generator: Sketch 51.2 (57519) - http://www.bohemiancoding.com/sketch -->
    <title>Keep it Simple - Right 1</title>
    <desc>Created with Sketch.</desc>
    <defs></defs>
    <g id="Page-1" stroke="none" stroke-width="1" fill="none" fill-rule="evenodd">
        <g id="Type-Basics-Copy" transform="translate(-352.000000, -12075.000000)">
            <g id="Keep-it-Simple---Right-1" transform="translate(352.000000, 12075.000000)">
                <rect id="Rectangle-16-Copy-151" fill="#FFFFFF" x="0" y="0" width="288" height="288"></rect>
                <path d="M55.192,107.472 L44.608,107.472 L44.608,139 L36.096,139 L36.096,107.472 L25.512,107.472 L25.512,99.912 L55.192,99.912 L55.192,107.472 Z M64.712,106.464 C61.352,106.464 59.896,104.728 59.896,102.376 L59.896,101.144 C59.896,98.792 61.352,97.056 64.712,97.056 C68.072,97.056 69.528,98.792 69.528,101.144 L69.528,102.376 C69.528,104.728 68.072,106.464 64.712,106.464 Z M60.568,139 L60.568,109.6 L68.856,109.6 L68.856,139 L60.568,139 Z M91.816,139 L86.888,139 C81.176,139 78.152,136.032 78.152,130.432 L78.152,116.04 L74.008,116.04 L74.008,109.6 L76.08,109.6 C78.32,109.6 78.992,108.48 78.992,106.464 L78.992,101.648 L86.44,101.648 L86.44,109.6 L92.264,109.6 L92.264,116.04 L86.44,116.04 L86.44,132.56 L91.816,132.56 L91.816,139 Z M110.016,139 L106.264,139 C100.608,139 98.032,136.144 98.032,130.936 L98.032,97.56 L106.32,97.56 L106.32,132.56 L110.016,132.56 L110.016,139 Z M127.264,139.672 C118.248,139.672 113.152,133.68 113.152,124.272 C113.152,114.976 118.08,108.928 126.928,108.928 C136.672,108.928 140.592,115.984 140.592,123.936 L140.592,126.4 L121.72,126.4 L121.72,126.848 C121.72,130.712 123.792,133.176 128.216,133.176 C131.688,133.176 133.592,131.552 135.44,129.648 L139.584,134.8 C136.952,137.824 132.64,139.672 127.264,139.672 Z M127.096,115.032 C123.792,115.032 121.72,117.44 121.72,121.08 L121.72,121.528 L132.024,121.528 L132.024,121.024 C132.024,117.44 130.4,115.032 127.096,115.032 Z M40.184,199.672 C33.912,199.672 29.488,197.096 26.352,192.84 L29.824,189.928 C32.568,193.568 35.816,195.528 40.352,195.528 C45.952,195.528 48.976,192.616 48.976,188.136 C48.976,184.44 46.904,182.592 41.752,181.416 L38.56,180.688 C31.448,179.064 27.528,175.928 27.528,169.936 C27.528,162.992 32.792,159.24 40.464,159.24 C46.344,159.24 50.488,161.48 53.4,165.624 L49.872,168.2 C47.744,165.232 44.776,163.384 40.24,163.384 C35.256,163.384 32.176,165.568 32.176,169.768 C32.176,173.464 34.584,175.144 39.512,176.264 L42.704,176.992 C50.32,178.728 53.624,182.088 53.624,187.912 C53.624,195.08 48.584,199.672 40.184,199.672 Z M79.104,199 L79.104,194.296 L78.88,194.296 C77.76,197.04 75.576,199.672 70.76,199.672 C64.824,199.672 61.016,195.64 61.016,188.64 L61.016,170.104 L65.496,170.104 L65.496,187.856 C65.496,193.008 67.792,195.64 72.104,195.64 C75.632,195.64 79.104,193.904 79.104,190.096 L79.104,170.104 L83.584,170.104 L83.584,199 L79.104,199 Z M93.104,199 L93.104,157.56 L97.584,157.56 L97.584,174.808 L97.808,174.808 C99.32,171.168 102.288,169.432 106.264,169.432 C113.488,169.432 118.024,175.312 118.024,184.552 C118.024,193.792 113.488,199.672 106.264,199.672 C102.288,199.672 99.544,197.88 97.808,194.296 L97.584,194.296 L97.584,199 L93.104,199 Z M105.032,195.64 C110.072,195.64 113.208,192.168 113.208,187.016 L113.208,182.088 C113.208,176.936 110.072,173.464 105.032,173.464 C100.944,173.464 97.584,175.816 97.584,179.008 L97.584,189.76 C97.584,193.512 100.944,195.64 105.032,195.64 Z M137.232,199 L131.632,199 C128.552,199 126.872,197.04 126.872,194.24 L126.872,174.024 L122.112,174.024 L122.112,170.104 L124.8,170.104 C126.704,170.104 127.32,169.432 127.32,167.472 L127.32,162.096 L131.352,162.096 L131.352,170.104 L137.68,170.104 L137.68,174.024 L131.352,174.024 L131.352,195.08 L137.232,195.08 L137.232,199 Z M147.144,163.328 C145.24,163.328 144.4,162.32 144.4,160.808 L144.4,160.08 C144.4,158.568 145.24,157.56 147.144,157.56 C149.048,157.56 149.888,158.568 149.888,160.08 L149.888,160.808 C149.888,162.32 149.048,163.328 147.144,163.328 Z M144.904,199 L144.904,170.104 L149.384,170.104 L149.384,199 L144.904,199 Z M170.888,199 L165.288,199 C162.208,199 160.528,197.04 160.528,194.24 L160.528,174.024 L155.768,174.024 L155.768,170.104 L158.456,170.104 C160.36,170.104 160.976,169.432 160.976,167.472 L160.976,162.096 L165.008,162.096 L165.008,170.104 L171.336,170.104 L171.336,174.024 L165.008,174.024 L165.008,195.08 L170.888,195.08 L170.888,199 Z M187.296,199 L183.32,199 C180.24,199 178.56,197.04 178.56,194.352 L178.56,157.56 L183.04,157.56 L183.04,195.08 L187.296,195.08 L187.296,199 Z M204.656,199.672 C196.816,199.672 191.664,193.736 191.664,184.552 C191.664,175.368 196.816,169.432 204.656,169.432 C212.384,169.432 217.144,175.368 217.144,183.544 L217.144,185.672 L196.368,185.672 L196.368,187.016 C196.368,192 199.56,195.752 204.936,195.752 C208.576,195.752 211.376,193.96 212.888,190.768 L216.08,193.064 C214.232,196.984 210.088,199.672 204.656,199.672 Z M204.656,173.184 C199.784,173.184 196.368,176.88 196.368,181.92 L196.368,182.312 L212.328,182.312 L212.328,181.696 C212.328,176.6 209.248,173.184 204.656,173.184 Z" id="Title-Subtitle" fill="#3D3D3D"></path>
            </g>
        </g>
    </g>
</svg>
